svg/300/sharp/ent-fill.svg

<svg xmlns="http://www.w3.org/2000/svg" width="48" height="48" viewBox="0 -960 960 960"><path d="M260.001-100.001v-161.23q-57-52-88.5-119.193-31.5-67.192-31.5-139.961 0-141.537 99.231-240.576 99.23-99.038 240.768-99.038 116.538 0 208.422 69.654t119.346 180.73l57.461 229.614h-125.23v200h-160v80H428.615l24.461-237.307h129.616v-45.384h-124.77l13.693-130.002H664.23v-45.384H430.462l-47.231 458.077h-123.23Z"/></svg>

<svg xmlns="http://www.w3.org/2000/svg" width="48" height="48" viewBox="0 -960 960 960"><path d="M260-100v-161.23q-57-52-88.5-119.19-31.5-67.2-31.5-139.96 0-141.54 99.23-240.58Q338.46-860 480-860q116.54 0 208.42 69.66 91.89 69.65 119.35 180.73L865.23-380H740v200H580v80H428.61l24.47-237.31h129.61v-45.38H457.92l13.69-130h192.62v-45.39H430.46L383.23-100H260Z"/></svg>
